; sample.mml 

@WT0={
$13,$19,$1b,$18,$13,$0f,$10,$14,
$1b,$1f,$1e,$19,$12,$0c,$0a,$0d,
$12,$15,$13,$0d,$06,$01,$00,$04,
$0b,$0f,$10,$0c,$07,$04,$06,$0c
}


@XPCM0 = { "pcm.pd4",0 }

F L t120 M0 W0 o4 v31
F cr dr er fr gr ar br > cr < 
F M1 n0 r n0 r n0 r n0 n0 n0 n0 
